src/icons/icons_set_01/052-mal-entendant.svg

<svg height="50" viewBox="0 0 50 50" width="50" xmlns="http://www.w3.org/2000/svg"><path d="m41.142875 36.2279861c.0015-3.7260417.00025-7.4523264.00025-11.178368h-.0055c0-3.766632-.00025-7.5332639 0-11.2998959 0-2.4023611-1.47025-3.82374998-3.95125-3.82326387-7.70675.00145834-15.414.04861111-23.12025-.02090277-2.81275-.02552084-4.29275 1.70965274-4.30575 4.09451384-.04025 7.3305556-.0335 14.6615973-.00225 21.9923959.01175 2.7615972 1.607 4.2517708 4.438 4.2542014 7.6235.0065625 15.24725.0080208 22.87075-.0075348 2.5945-.0051041 4.07475-1.487743 4.076-4.0111458zm-4.133-28.19128471c3.21725-.03913195 6.117 2.53920141 5.95925 5.77986111-.18275 3.7566667-.0425 7.5281597-.042 11.2933333.0005 3.8461111-.07525 7.6941667.02575 11.5376042.073 2.7674306-2.4965 5.3882986-5.53275 5.3802778-7.95325-.0209028-15.907-.0034028-23.8605-.00875-2.90825-.0019445-5.37925-2.17875-5.4605-5.04-.11475-4.0451736-.053-8.0952084-.059-12.1432986-.0055-3.5221181.12525-7.0495834-.0325-10.5651389-.18875-4.2024306 3.19375-6.32138891 6.3925-6.25211808 7.53325.16284722 15.07375.11034722 22.60975.01822917zm-15.0922338 7.33512181c4.7410614-1.7796899 10.1716993.7536031 10.7173067 5.9426643.2963323 2.8176445-.3197335 5.3167583-2.1513974 7.5476606-.8978994 1.0934958-1.1601471 2.4188877-1.6846424 3.6512363-.9246074 2.1718009-2.6557981 3.3832622-5.1503305 3.6270261-.3937531.0384516-.9185027.2233513-.9352907-.4203562-.0124637-.4730491-.256906-1.1205543.5875772-1.2107493 2.6151002-.2788925 3.7284446-1.9263755 4.3101715-4.0649466.3520376-1.2938236 1.1667604-2.353615 1.9723263-3.4119822 1.9130598-2.5140671 1.649286-7.1064172-.2492752-8.7313514-1.2771538-1.0930211-2.5878834-1.891959-4.3437473-1.7927445-2.9470431-.2155186-5.2876862 2.0531232-5.7600372 4.9654725-.0633363.3895001-.1345578.7932414-.0902987 1.1791811.1027624.9017127-.6069088.6204467-1.0853645.7137273-.708145.1381408-.7546933-.2637017-.7801296-.7490932-.159994-3.0720895 1.6490317-6.1218675 4.6431318-7.2457448zm1.1320838 16.2931969c.5244717.3405072.471525.6023111.1373617 1.0219843-1.5716668 1.9729043-3.1350918 3.9522899-4.6665491 5.9522773-.6406047.8368003-1.5401985.2643502-2.1835504.4569416-2.1460881.0006944-2.120364.0002315-2.1595745-1.8867937-.0159839-.7675877.169829-1.4210558.6785665-2.0347094 1.4845045-1.7902664 2.9425357-3.5995143 4.3983192-5.4099196.2405077-.2990721.3773699-.5620335.8436502-.2006931.9510419.7374953 1.9365491 1.4414261 2.9517764 2.1009126zm11.3314241-20.7178654c2.4974922-.0267352 2.4948847-.0142588 2.4228234 2.671743-.0116151.4280187-.0305786.8420332-.2652519 1.2158175-.9673752 1.5394414-1.9281132 3.0837205-3.0196993 4.8319515-.5888165-1.770383-1.438144-3.1308255-2.6288144-4.2254432-.363862-.3345726-.2816079-.5255387-.0011852-.9061978.7298575-.9920052 1.4241584-2.0239859 2.0326495-3.1051087.3956259-.7035191.9510192-.4774152 1.4594779-.4827623zm-5.3920569 12.6032415c-.4745182-.0508038-.5217531-.3777248-.5075344-.8342753.0951928-3.1097372-2.5680375-4.9190802-5.2582591-3.5865635-1.1815961.5852685-1.5515227 1.6655889-1.6903355 2.8327086-.0397641.3319331.0619356.7071519-.3851092.8632083-.3860732.1346414-.7131028.3137076-.7762433-.3679286-.2371386-2.5677544 1.8122787-4.7176877 4.5829925-4.7322682 3.4300748-.104797 4.5711838 2.5044206 4.6617977 5.0400525.0122907.3483361-.0571157.8463497-.6273087.7850662z" fill-rule="evenodd"/></svg>

<?xml version="1.0" encoding="UTF-8"?>
<svg width="50px" height="50px" viewBox="0 0 50 50" version="1.1" xmlns="http://www.w3.org/2000/svg" xmlns:xlink="http://www.w3.org/1999/xlink">
    <!-- Generator: Sketch 52.5 (67469) - http://www.bohemiancoding.com/sketch -->
    <title>052-mal-entendant</title>
    <desc>Created with Sketch.</desc>
    <g id="052-mal-entendant" stroke="none" stroke-width="1" fill="none" fill-rule="evenodd">
        <path d="M41.142875,36.2279861 C41.144375,32.5019444 41.143125,28.7756597 41.143125,25.0496181 L41.137625,25.0496181 C41.137625,21.2829861 41.137375,17.5163542 41.137625,13.7497222 C41.137625,11.3473611 39.667375,9.92597222 37.186375,9.92645833 C29.479625,9.92791667 21.772375,9.97506944 14.066125,9.90555556 C11.253375,9.88003472 9.773375,11.6152083 9.760375,14.0000694 C9.720125,21.330625 9.726875,28.6616667 9.758125,35.9924653 C9.769875,38.7540625 11.365125,40.2442361 14.196125,40.2466667 C21.819625,40.2532292 29.443375,40.2546875 37.066875,40.2391319 C39.661375,40.2340278 41.141625,38.7513889 41.142875,36.2279861 Z M37.009875,8.03670139 C40.227125,7.99756944 43.126875,10.5759028 42.969125,13.8165625 C42.786375,17.5732292 42.926625,21.3447222 42.927125,25.1098958 C42.927625,28.9560069 42.851875,32.8040625 42.952875,36.6475 C43.025875,39.4149306 40.456375,42.0357986 37.420125,42.0277778 C29.466875,42.006875 21.513125,42.024375 13.559625,42.0190278 C10.651375,42.0170833 8.180375,39.8402778 8.099125,36.9790278 C7.984375,32.9338542 8.046125,28.8838194 8.040125,24.8357292 C8.034625,21.3136111 8.165375,17.7861458 8.007625,14.2705903 C7.818875,10.0681597 11.201375,7.94920139 14.400125,8.01847222 C21.933375,8.18131944 29.473875,8.12881944 37.009875,8.03670139 Z M21.9176412,15.3718232 C26.6587026,13.5921333 32.0893405,16.1254263 32.6349479,21.3144875 C32.9312802,24.132132 32.3152144,26.6312458 30.4835505,28.8621481 C29.5856511,29.9556439 29.3234034,31.2810358 28.7989081,32.5133844 C27.8743007,34.6851853 26.14311,35.8966466 23.6485776,36.1404105 C23.2548245,36.1788621 22.7300749,36.3637618 22.7132869,35.7200543 C22.7008232,35.2470052 22.4563809,34.5995 23.3008641,34.509305 C25.9159643,34.2304125 27.0293087,32.5829295 27.6110356,30.4443584 C27.9630732,29.1505348 28.777796,28.0907434 29.5833619,27.0323762 C31.4964217,24.5183091 31.2326479,19.925959 29.3340867,18.3010248 C28.0569329,17.2080037 26.7462033,16.4090658 24.9903394,16.5082803 C22.0432963,16.2927617 19.7026532,18.5614035 19.2303022,21.4737528 C19.1669659,21.8632529 19.0957444,22.2669942 19.1400035,22.6529339 C19.2427659,23.5546466 18.5330947,23.2733806 18.054639,23.3666612 C17.346494,23.504802 17.2999457,23.1029595 17.2745094,22.617568 C17.1145154,19.5454785 18.9235411,16.4957005 21.9176412,15.3718232 Z M23.049725,31.6650201 C23.5741967,32.0055273 23.52125,32.2673312 23.1870867,32.6870044 C21.6154199,34.6599087 20.0519949,36.6392943 18.5205376,38.6392817 C17.8799329,39.476082 16.9803391,38.9036319 16.3369872,39.0962233 C14.1908991,39.0969177 14.2166232,39.0964548 14.1774127,37.2094296 C14.1614288,36.4418419 14.3472417,35.7883738 14.8559792,35.1747202 C16.3404837,33.3844538 17.7985149,31.5752059 19.2542984,29.7648006 C19.4948061,29.4657285 19.6316683,29.2027671 20.0979486,29.5641075 C21.0489905,30.3016028 22.0344977,31.0055336 23.049725,31.6650201 Z M34.3811491,10.9471547 C36.8786413,10.9204195 36.8760338,10.9328959 36.8039725,13.6188977 C36.7923574,14.0469164 36.7733939,14.4609309 36.5387206,14.8347152 C35.5713454,16.3741566 34.6106074,17.9184357 33.5190213,19.6666667 C32.9302048,17.8962837 32.0808773,16.5358412 30.8902069,15.4412235 C30.5263449,15.1066509 30.608599,14.9156848 30.8890217,14.5350257 C31.6188792,13.5430205 32.3131801,12.5110398 32.9216712,11.429917 C33.3172971,10.7263979 33.8726904,10.9525018 34.3811491,10.9471547 Z M28.9890922,23.5503962 C28.514574,23.4995924 28.4673391,23.1726714 28.4815578,22.7161209 C28.5767506,19.6063837 25.9135203,17.7970407 23.2232987,19.1295574 C22.0417026,19.7148259 21.671776,20.7951463 21.5329632,21.962266 C21.4931991,22.2941991 21.5948988,22.6694179 21.147854,22.8254743 C20.7617808,22.9601157 20.4347512,23.1391819 20.3716107,22.4575457 C20.1344721,19.8897913 22.1838894,17.739858 24.9546032,17.7252775 C28.384678,17.6204805 29.525787,20.2296981 29.6164009,22.76533 C29.6286916,23.1136661 29.5592852,23.6116797 28.9890922,23.5503962 Z" id="Combined-Shape" fill="#000000"></path>
    </g>
</svg>
